exports/temporary-accommodation-england_v2_850x600.svg

<svg xmlns="http://www.w3.org/2000/svg" version="1.1" style="background-color:#fff;-webkit-font-smoothing:antialiased" width="850" height="600" font-family="'Helvetica Neue',Helvetica,Arial,sans-serif" font-size="18" text-rendering="optimizeLegibility"><g class="ChartTab"><g class="HeaderView"><g opacity=".8" transform="matrix(.27 0 0 .27 778 15)"><a xmlns:xlink="http://www.w3.org/1999/xlink" xlink:href="https://ourworldindata.org" target="_blank"><g><path fill="#1B2543" d="M0 0h211.2v130.1H0z"/><path fill="#E63912" d="M0 112.2h211.2v17.9H0z"/><g><path fill="none" d="M1.2 12.3h210.2v99.2H1.2z"/><path fill="#FFF" d="M37.8 32.2c0 12.7-7.7 19.4-17.1 19.4-9.7 0-16.6-7.5-16.6-18.7 0-11.7 7.3-19.3 17.1-19.3 10.1.1 16.6 7.7 16.6 18.6zm-28.6.6c0 7.9 4.3 14.9 11.8 14.9 7.5 0 11.8-6.9 11.8-15.3 0-7.3-3.8-14.9-11.8-14.9-7.9 0-11.8 7.3-11.8 15.3zM62.7 43.8c0 2.7.1 5.1.2 7.2h-4.3l-.3-4.3h-.1c-1.3 2.1-4 4.9-8.8 4.9-4.2 0-9.1-2.3-9.1-11.6V24.6h4.8v14.6c0 5 1.5 8.4 5.9 8.4 3.2 0 5.5-2.2 6.3-4.4.3-.7.4-1.6.4-2.5V24.6h4.8v19.2zM67.3 32.8c0-3.1-.1-5.8-.2-8.2h4.2l.2 5.2h.2c1.2-3.5 4.1-5.8 7.3-5.8.5 0 .9.1 1.4.2v4.5c-.5-.1-1-.2-1.6-.2-3.4 0-5.8 2.6-6.5 6.2-.1.7-.2 1.4-.2 2.2V51h-4.8V32.8zM95.4 51L86 14.2h5l4.4 18.6c1.1 4.6 2.1 9.2 2.7 12.7h.1c.6-3.7 1.8-8 3-12.8l4.9-18.5h5l4.5 18.7c1 4.4 2 8.7 2.6 12.6h.1c.8-4 1.8-8.1 3-12.7l4.9-18.5h4.9L120.6 51h-5L111 31.9c-1.1-4.7-1.9-8.3-2.4-12h-.1c-.7 3.7-1.5 7.3-2.8 12L100.4 51h-5zM154.9 37.6c0 9.8-6.8 14-13.2 14-7.2 0-12.7-5.2-12.7-13.6 0-8.8 5.8-14 13.1-14 7.7 0 12.8 5.5 12.8 13.6zm-21 .3c0 5.8 3.3 10.1 8 10.1 4.6 0 8-4.3 8-10.3 0-4.5-2.2-10.1-7.9-10.1s-8.1 5.2-8.1 10.3zM158.2 32.8c0-3.1-.1-5.8-.2-8.2h4.2l.2 5.2h.2c1.2-3.5 4.1-5.8 7.3-5.8.5 0 .9.1 1.4.2v4.5c-.5-.1-1-.2-1.6-.2-3.4 0-5.8 2.6-6.5 6.2-.1.7-.2 1.4-.2 2.2V51h-4.8V32.8zM173.5 12.3h4.8V51h-4.8V12.3zM206.5 12.3v31.9c0 2.3.1 5 .2 6.8h-4.3l-.2-4.6h-.2c-1.5 2.9-4.7 5.2-9 5.2-6.4 0-11.3-5.4-11.3-13.4-.1-8.8 5.4-14.2 11.9-14.2 4 0 6.8 1.9 8 4h.1V12.3h4.8zm-4.8 23.1c0-.6-.1-1.4-.2-2a7 7 0 00-6.9-5.6c-5 0-7.9 4.4-7.9 10.2 0 5.3 2.6 9.8 7.8 9.8 3.2 0 6.2-2.1 7.1-5.7.2-.7.2-1.3.2-2.1v-4.6zM42.8 64c.1 1.6-1.1 2.9-3.1 2.9-1.7 0-2.9-1.3-2.9-2.9 0-1.7 1.3-3 3-3 1.9 0 3 1.3 3 3zm-5.4 33.8V71.4h4.8v26.4h-4.8zM47.5 78.6c0-2.7-.1-5-.2-7.1h4.3l.3 4.4h.1c1.3-2.5 4.4-5 8.8-5 3.7 0 9.4 2.2 9.4 11.2v15.8h-4.8V82.6c0-4.3-1.6-7.8-6.1-7.8-3.2 0-5.6 2.2-6.5 4.9-.2.6-.3 1.4-.3 2.2v15.9h-4.8V78.6zM84 61.6c2.9-.4 6.3-.8 10.1-.8 6.8 0 11.7 1.6 14.9 4.6 3.3 3 5.2 7.3 5.2 13.2 0 6-1.9 10.9-5.3 14.3-3.4 3.4-9.1 5.3-16.3 5.3-3.4 0-6.2-.2-8.6-.4V61.6zm4.8 32.5c1.2.2 3 .3 4.8.3 10.2 0 15.7-5.7 15.7-15.6.1-8.7-4.9-14.2-14.9-14.2-2.5 0-4.3.2-5.6.5v29zM132.1 97.8l-.4-3.3h-.2a9.79 9.79 0 01-8.1 3.9c-5.4 0-8.1-3.8-8.1-7.6 0-6.4 5.7-9.9 15.9-9.8v-.5c0-2.2-.6-6.1-6-6.1-2.5 0-5 .8-6.9 2l-1.1-3.2c2.2-1.4 5.4-2.3 8.7-2.3 8.1 0 10.1 5.5 10.1 10.8v9.9c0 2.3.1 4.5.4 6.3h-4.3zm-.7-13.4c-5.3-.1-11.2.8-11.2 5.9 0 3.1 2.1 4.6 4.5 4.6 3.4 0 5.6-2.2 6.4-4.4.2-.5.3-1 .3-1.5v-4.6zM146.6 63.9v7.6h6.9v3.7h-6.9v14.2c0 3.3.9 5.1 3.6 5.1 1.3 0 2.2-.2 2.8-.3l.2 3.6c-.9.4-2.4.7-4.3.7-2.2 0-4-.7-5.2-2-1.4-1.4-1.9-3.8-1.9-6.9V75.1h-4.1v-3.7h4.1v-6.3l4.8-1.2zM171.4 97.8l-.4-3.3h-.2a9.79 9.79 0 01-8.1 3.9c-5.4 0-8.1-3.8-8.1-7.6 0-6.4 5.7-9.9 15.9-9.8v-.5c0-2.2-.6-6.1-6-6.1-2.5 0-5 .8-6.9 2l-1.1-3.2c2.2-1.4 5.4-2.3 8.7-2.3 8.1 0 10.1 5.5 10.1 10.8v9.9c0 2.3.1 4.5.4 6.3h-4.3zm-.7-13.4c-5.3-.1-11.2.8-11.2 5.9 0 3.1 2.1 4.6 4.5 4.6 3.4 0 5.6-2.2 6.4-4.4.2-.5.3-1 .3-1.5v-4.6z"/></g></g></a></g><a href="https://ourworldindata.org/grapher/temporary-accommodation-england" target="_blank"><text font-size="21.6" x="15" y="32.3" fill="#555"><tspan x="15" y="32.28">Number of households and children in temporary accommodation in England</tspan></text></a><text font-size="14.4" x="15" y="50.1" fill="#666"><tspan x="15" y="50.12">The total number of households, households with children, and children in England who are in temporary</tspan><tspan x="15" y="65.96">accommodation at any given point in time. Temporary accommodation is allocated to households with no permanent</tspan><tspan x="15" y="81.8">form of residence or who face immediate eviction. These figures are included in UK Government statistics on the</tspan><tspan x="15" y="97.64">prevalence of homelessness.</tspan></text></g><g class="LineChart"><defs><clipPath id="a"><path d="M68.97 0h830v874h-830z"/></clipPath></defs><g class="AxisBoxView"><g class="HorizontalAxis" fill="#666" text-anchor="middle" font-size="16.2"><text x="79" y="556.5">1998</text><text x="139" y="556.5">2000</text><text x="289.2" y="556.5">2005</text><text x="439.3" y="556.5">2010</text><text x="589.4" y="556.5">2015</text><text x="649.5" y="556.5">2017</text></g><g class="VerticalAxis" fill="#666" dominant-baseline="middle" text-anchor="end" font-size="16.2"><text x="73.97" y="535.3">0</text><text x="73.97" y="471">20,000</text><text x="73.97" y="406.7">40,000</text><text x="73.97" y="342.4">60,000</text><text x="73.97" y="278.1">80,000</text><text x="73.97" y="213.8">100,000</text><text x="73.97" y="149.5">120,000</text></g><g class="AxisGridLines"><path stroke="#ccc" d="M78.97 535.3h570.51"/><path stroke="#ddd" stroke-dasharray="3,2" d="M78.97 471h570.51M78.97 406.7h570.51M78.97 342.4h570.51M78.97 278.1h570.51M78.97 213.8h570.51M78.97 149.5h570.51"/></g></g><g clip-path="url(#a)"><g class="HeightedLegend clickable"><g class="legendMark"><text font-size="13.5" x="654.5" y="144.5" fill="#818282"><tspan x="654.48" y="144.45">Children</tspan></text></g><g class="legendMark"><text font-size="13.5" x="654.5" y="282.8" fill="#ca2628"><tspan x="654.48" y="282.75">Households</tspan></text></g><g class="legendMark"><text font-size="13.5" x="654.5" y="340.1" fill="#3360a9"><tspan x="654.48" y="340.05">Households with children</tspan></text></g></g><g class="Lines"><g class="key-England_0"><path stroke="#818282" stroke-linecap="round" d="M259 141l30-17 30-4 30 39 30 40 30 70 30 37 30 5 30-18 30-11 30-39 30-40 30-45 31-18" fill="none" stroke-width="1.5"/><g fill="#818282"><circle cx="259" cy="141" r="2"/><circle cx="289" cy="124" r="2"/><circle cx="319" cy="120" r="2"/><circle cx="349" cy="159" r="2"/><circle cx="379" cy="199" r="2"/><circle cx="409" cy="269" r="2"/><circle cx="439" cy="306" r="2"/><circle cx="469" cy="311" r="2"/><circle cx="499" cy="293" r="2"/><circle cx="529" cy="282" r="2"/><circle cx="559" cy="243" r="2"/><circle cx="589" cy="203" r="2"/><circle cx="619" cy="158" r="2"/><circle cx="650" cy="140" r="2"/></g></g><g class="key-England_1"><path stroke="#3360a9" stroke-linecap="round" d="M199 337l30-18 30-17 30-5 30 15 30 21 30 23 30 40 30 18 30 3 30-11 30-6 30-17 30-20 30-19 31-8" fill="none" stroke-width="1.5"/><g fill="#3360a9"><circle cx="199" cy="337" r="2"/><circle cx="229" cy="319" r="2"/><circle cx="259" cy="302" r="2"/><circle cx="289" cy="297" r="2"/><circle cx="319" cy="312" r="2"/><circle cx="349" cy="333" r="2"/><circle cx="379" cy="356" r="2"/><circle cx="409" cy="396" r="2"/><circle cx="439" cy="414" r="2"/><circle cx="469" cy="417" r="2"/><circle cx="499" cy="406" r="2"/><circle cx="529" cy="400" r="2"/><circle cx="559" cy="383" r="2"/><circle cx="589" cy="363" r="2"/><circle cx="619" cy="344" r="2"/><circle cx="650" cy="336" r="2"/></g></g><g class="key-England_2"><path stroke="#ca2628" stroke-linecap="round" d="M79 367l30-63 30-19 30 1 30-24 30-30 30-22 30 1 30 25 30 33 30 34 30 49 30 24 30 2 30-13 30-14 30-11 30-25 30-20 31-16" fill="none" stroke-width="1.5"/><g fill="#ca2628"><circle cx="79" cy="367" r="2"/><circle cx="109" cy="304" r="2"/><circle cx="139" cy="285" r="2"/><circle cx="169" cy="286" r="2"/><circle cx="199" cy="262" r="2"/><circle cx="229" cy="232" r="2"/><circle cx="259" cy="210" r="2"/><circle cx="289" cy="211" r="2"/><circle cx="319" cy="236" r="2"/><circle cx="349" cy="269" r="2"/><circle cx="379" cy="303" r="2"/><circle cx="409" cy="352" r="2"/><circle cx="439" cy="376" r="2"/><circle cx="469" cy="378" r="2"/><circle cx="499" cy="365" r="2"/><circle cx="529" cy="351" r="2"/><circle cx="559" cy="340" r="2"/><circle cx="589" cy="315" r="2"/><circle cx="619" cy="295" r="2"/><circle cx="650" cy="279" r="2"/></g></g></g></g></g><g class="SourcesFooter" fill="#777"><g class="clickable" fill="#777"><text font-size="12.6" x="15" y="581.6"><tspan x="15" y="581.58">Source: UK Government (2018). Ministry of Housing, Communities &amp; Local Government</tspan></text></g><text font-size="12.6" x="564.7" y="581.6"><tspan x="564.73" y="581.58"><a target="_blank" href="https://ourworldindata.org/homelessness" fill="#777">OurWorldInData.org/homelessness</a> • <a class="cclogo" href="http://creativecommons.org/licenses/by-sa/4.0/deed.en_US" target="_blank" fill="#777">CC BY-SA</a></tspan></text></g></g></svg>

<svg xmlns="http://www.w3.org/2000/svg" version="1.1" style="font-family:&#x27;Helvetica Neue&#x27;, Helvetica, Arial, sans-serif;font-size:18px;background-color:white;text-rendering:optimizeLegibility;-webkit-font-smoothing:antialiased" width="850" height="600"><g class="ChartTab"><g class="HeaderView"><g opacity="0.8" transform="translate(778, 15) scale(0.27)"><a xmlns:xlink="http://www.w3.org/1999/xlink" xlink:href="https://ourworldindata.org" target="_blank"><g><rect x="0" y="0" fill="#1B2543" width="211.2" height="130.1"/><rect x="0" y="112.2" fill="#E63912" width="211.2" height="17.9"/><g><rect x="1.2" y="12.3" fill="none" width="210.2" height="99.2"/><path fill="#FFFFFF" d="M37.8,32.2c0,12.7-7.7,19.4-17.1,19.4c-9.7,0-16.6-7.5-16.6-18.7c0-11.7,7.3-19.3,17.1-19.3 C31.3,13.7,37.8,21.3,37.8,32.2z M9.2,32.8c0,7.9,4.3,14.9,11.8,14.9c7.5,0,11.8-6.9,11.8-15.3c0-7.3-3.8-14.9-11.8-14.9 C13.1,17.5,9.2,24.8,9.2,32.8z"/><path fill="#FFFFFF" d="M62.7,43.8c0,2.7,0.1,5.1,0.2,7.2h-4.3l-0.3-4.3h-0.1c-1.3,2.1-4,4.9-8.8,4.9c-4.2,0-9.1-2.3-9.1-11.6 V24.6h4.8v14.6c0,5,1.5,8.4,5.9,8.4c3.2,0,5.5-2.2,6.3-4.4c0.3-0.7,0.4-1.6,0.4-2.5V24.6h4.8V43.8z"/><path fill="#FFFFFF" d="M67.3,32.8c0-3.1-0.1-5.8-0.2-8.2h4.2l0.2,5.2h0.2c1.2-3.5,4.1-5.8,7.3-5.8c0.5,0,0.9,0.1,1.4,0.2v4.5 c-0.5-0.1-1-0.2-1.6-0.2c-3.4,0-5.8,2.6-6.5,6.2c-0.1,0.7-0.2,1.4-0.2,2.2V51h-4.8V32.8z"/><path fill="#FFFFFF" d="M95.4,51l-9.4-36.8h5l4.4,18.6c1.1,4.6,2.1,9.2,2.7,12.7h0.1c0.6-3.7,1.8-8,3-12.8l4.9-18.5h5l4.5,18.7 c1,4.4,2,8.7,2.6,12.6h0.1c0.8-4,1.8-8.1,3-12.7l4.9-18.5h4.9L120.6,51h-5L111,31.9c-1.1-4.7-1.9-8.3-2.4-12h-0.1 c-0.7,3.7-1.5,7.3-2.8,12L100.4,51H95.4z"/><path fill="#FFFFFF" d="M154.9,37.6c0,9.8-6.8,14-13.2,14c-7.2,0-12.7-5.2-12.7-13.6c0-8.8,5.8-14,13.1-14 C149.8,24,154.9,29.5,154.9,37.6z M133.9,37.9c0,5.8,3.3,10.1,8,10.1c4.6,0,8-4.3,8-10.3c0-4.5-2.2-10.1-7.9-10.1 C136.3,27.6,133.9,32.8,133.9,37.9z"/><path fill="#FFFFFF" d="M158.2,32.8c0-3.1-0.1-5.8-0.2-8.2h4.2l0.2,5.2h0.2c1.2-3.5,4.1-5.8,7.3-5.8c0.5,0,0.9,0.1,1.4,0.2v4.5 c-0.5-0.1-1-0.2-1.6-0.2c-3.4,0-5.8,2.6-6.5,6.2c-0.1,0.7-0.2,1.4-0.2,2.2V51h-4.8V32.8z"/><path fill="#FFFFFF" d="M173.5,12.3h4.8V51h-4.8V12.3z"/><path fill="#FFFFFF" d="M206.5,12.3v31.9c0,2.3,0.1,5,0.2,6.8h-4.3l-0.2-4.6H202c-1.5,2.9-4.7,5.2-9,5.2 c-6.4,0-11.3-5.4-11.3-13.4c-0.1-8.8,5.4-14.2,11.9-14.2c4,0,6.8,1.9,8,4h0.1V12.3H206.5z M201.7,35.4c0-0.6-0.1-1.4-0.2-2 c-0.7-3.1-3.3-5.6-6.9-5.6c-5,0-7.9,4.4-7.9,10.2c0,5.3,2.6,9.8,7.8,9.8c3.2,0,6.2-2.1,7.1-5.7c0.2-0.7,0.2-1.3,0.2-2.1V35.4z"/><path fill="#FFFFFF" d="M42.8,64c0.1,1.6-1.1,2.9-3.1,2.9c-1.7,0-2.9-1.3-2.9-2.9c0-1.7,1.3-3,3-3C41.7,61,42.8,62.3,42.8,64z M37.4,97.8V71.4h4.8v26.4H37.4z"/><path fill="#FFFFFF" d="M47.5,78.6c0-2.7-0.1-5-0.2-7.1h4.3l0.3,4.4h0.1c1.3-2.5,4.4-5,8.8-5c3.7,0,9.4,2.2,9.4,11.2v15.8h-4.8 V82.6c0-4.3-1.6-7.8-6.1-7.8c-3.2,0-5.6,2.2-6.5,4.9c-0.2,0.6-0.3,1.4-0.3,2.2v15.9h-4.8V78.6z"/><path fill="#FFFFFF" d="M84,61.6c2.9-0.4,6.3-0.8,10.1-0.8c6.8,0,11.7,1.6,14.9,4.6c3.3,3,5.2,7.3,5.2,13.2c0,6-1.9,10.9-5.3,14.3 c-3.4,3.4-9.1,5.3-16.3,5.3c-3.4,0-6.2-0.2-8.6-0.4V61.6z M88.8,94.1c1.2,0.2,3,0.3,4.8,0.3c10.2,0,15.7-5.7,15.7-15.6 c0.1-8.7-4.9-14.2-14.9-14.2c-2.5,0-4.3,0.2-5.6,0.5V94.1z"/><path fill="#FFFFFF" d="M132.1,97.8l-0.4-3.3h-0.2c-1.5,2.1-4.3,3.9-8.1,3.9c-5.4,0-8.1-3.8-8.1-7.6c0-6.4,5.7-9.9,15.9-9.8v-0.5 c0-2.2-0.6-6.1-6-6.1c-2.5,0-5,0.8-6.9,2l-1.1-3.2c2.2-1.4,5.4-2.3,8.7-2.3c8.1,0,10.1,5.5,10.1,10.8v9.9c0,2.3,0.1,4.5,0.4,6.3 H132.1z M131.4,84.4c-5.3-0.1-11.2,0.8-11.2,5.9c0,3.1,2.1,4.6,4.5,4.6c3.4,0,5.6-2.2,6.4-4.4c0.2-0.5,0.3-1,0.3-1.5V84.4z"/><path fill="#FFFFFF" d="M146.6,63.9v7.6h6.9v3.7h-6.9v14.2c0,3.3,0.9,5.1,3.6,5.1c1.3,0,2.2-0.2,2.8-0.3l0.2,3.6 c-0.9,0.4-2.4,0.7-4.3,0.7c-2.2,0-4-0.7-5.2-2c-1.4-1.4-1.9-3.8-1.9-6.9V75.1h-4.1v-3.7h4.1v-6.3L146.6,63.9z"/><path fill="#FFFFFF" d="M171.4,97.8l-0.4-3.3h-0.2c-1.5,2.1-4.3,3.9-8.1,3.9c-5.4,0-8.1-3.8-8.1-7.6c0-6.4,5.7-9.9,15.9-9.8v-0.5 c0-2.2-0.6-6.1-6-6.1c-2.5,0-5,0.8-6.9,2l-1.1-3.2c2.2-1.4,5.4-2.3,8.7-2.3c8.1,0,10.1,5.5,10.1,10.8v9.9c0,2.3,0.1,4.5,0.4,6.3 H171.4z M170.7,84.4c-5.3-0.1-11.2,0.8-11.2,5.9c0,3.1,2.1,4.6,4.5,4.6c3.4,0,5.6-2.2,6.4-4.4c0.2-0.5,0.3-1,0.3-1.5V84.4z"/></g></g></a></g><a href="https://ourworldindata.org/grapher/temporary-accommodation-england" target="_blank"><text font-size="21.60" x="15.0" y="32.3" fill="#555"><tspan x="15" y="32.279999999999994">Number of households and children in temporary accommodation in England</tspan></text></a><text font-size="14.40" x="15.0" y="50.1" fill="#666"><tspan x="15" y="50.11999999999999">The total number of households, households with children, and children in England who are in temporary</tspan><tspan x="15" y="65.96">accommodation at any given point in time. Temporary accommodation is allocated to households with no permanent</tspan><tspan x="15" y="81.8">form of residence or who face immediate eviction. These figures are included in UK Government statistics on the</tspan><tspan x="15" y="97.63999999999999">prevalence of homelessness.</tspan></text></g><g class="LineChart"><defs><clipPath id="boundsClip-1"><rect x="68.968" y="0" width="830" height="874"></rect></clipPath></defs><g class="AxisBoxView"><g class="HorizontalAxis"><text x="79" y="556.5" fill="#666" text-anchor="middle" font-size="16.2">1998</text><text x="139" y="556.5" fill="#666" text-anchor="middle" font-size="16.2">2000</text><text x="289.2" y="556.5" fill="#666" text-anchor="middle" font-size="16.2">2005</text><text x="439.3" y="556.5" fill="#666" text-anchor="middle" font-size="16.2">2010</text><text x="589.4" y="556.5" fill="#666" text-anchor="middle" font-size="16.2">2015</text><text x="649.5" y="556.5" fill="#666" text-anchor="middle" font-size="16.2">2017</text></g><g class="VerticalAxis"><text x="73.97" y="535.3" fill="#666" dominant-baseline="middle" text-anchor="end" font-size="16.2">0</text><text x="73.97" y="471" fill="#666" dominant-baseline="middle" text-anchor="end" font-size="16.2">20,000</text><text x="73.97" y="406.7" fill="#666" dominant-baseline="middle" text-anchor="end" font-size="16.2">40,000</text><text x="73.97" y="342.4" fill="#666" dominant-baseline="middle" text-anchor="end" font-size="16.2">60,000</text><text x="73.97" y="278.1" fill="#666" dominant-baseline="middle" text-anchor="end" font-size="16.2">80,000</text><text x="73.97" y="213.8" fill="#666" dominant-baseline="middle" text-anchor="end" font-size="16.2">100,000</text><text x="73.97" y="149.5" fill="#666" dominant-baseline="middle" text-anchor="end" font-size="16.2">120,000</text></g><g class="AxisGridLines"><line x1="78.97" y1="535.3" x2="649.48" y2="535.3" stroke="#ccc"></line><line x1="78.97" y1="471" x2="649.48" y2="471" stroke="#ddd" stroke-dasharray="3,2"></line><line x1="78.97" y1="406.7" x2="649.48" y2="406.7" stroke="#ddd" stroke-dasharray="3,2"></line><line x1="78.97" y1="342.4" x2="649.48" y2="342.4" stroke="#ddd" stroke-dasharray="3,2"></line><line x1="78.97" y1="278.1" x2="649.48" y2="278.1" stroke="#ddd" stroke-dasharray="3,2"></line><line x1="78.97" y1="213.8" x2="649.48" y2="213.8" stroke="#ddd" stroke-dasharray="3,2"></line><line x1="78.97" y1="149.5" x2="649.48" y2="149.5" stroke="#ddd" stroke-dasharray="3,2"></line></g></g><g clip-path="url(#boundsClip-1)"><g class="HeightedLegend clickable"><g class="legendMark"><rect x="649.475" y="133.65" width="85.355" height="13.5" fill="#fff" opacity="0"></rect><text font-size="13.50" x="654.5" y="144.5" fill="#818282"><tspan x="654.475" y="144.45000000000002">Children</tspan></text></g><g class="legendMark"><rect x="649.475" y="271.95" width="106.55000000000001" height="13.5" fill="#fff" opacity="0"></rect><text font-size="13.50" x="654.5" y="282.8" fill="#ca2628"><tspan x="654.475" y="282.75">Households</tspan></text></g><g class="legendMark"><rect x="649.475" y="329.25" width="185.525" height="13.5" fill="#fff" opacity="0"></rect><text font-size="13.50" x="654.5" y="340.1" fill="#3360a9"><tspan x="654.475" y="340.05">Households with children</tspan></text></g></g><g class="Lines"><rect x="79" y="120" width="571" height="416" fill="rgba(255,255,255,0)" opacity="0"></rect><g class="key-England_0"><path stroke="#818282" stroke-linecap="round" d="M259 141L289 124L319 120L349 159L379 199L409 269L439 306L469 311L499 293L529 282L559 243L589 203L619 158L650 140" fill="none" stroke-width="1.5"></path><g fill="#818282"><circle cx="259" cy="141" r="2"></circle><circle cx="289" cy="124" r="2"></circle><circle cx="319" cy="120" r="2"></circle><circle cx="349" cy="159" r="2"></circle><circle cx="379" cy="199" r="2"></circle><circle cx="409" cy="269" r="2"></circle><circle cx="439" cy="306" r="2"></circle><circle cx="469" cy="311" r="2"></circle><circle cx="499" cy="293" r="2"></circle><circle cx="529" cy="282" r="2"></circle><circle cx="559" cy="243" r="2"></circle><circle cx="589" cy="203" r="2"></circle><circle cx="619" cy="158" r="2"></circle><circle cx="650" cy="140" r="2"></circle></g></g><g class="key-England_1"><path stroke="#3360a9" stroke-linecap="round" d="M199 337L229 319L259 302L289 297L319 312L349 333L379 356L409 396L439 414L469 417L499 406L529 400L559 383L589 363L619 344L650 336" fill="none" stroke-width="1.5"></path><g fill="#3360a9"><circle cx="199" cy="337" r="2"></circle><circle cx="229" cy="319" r="2"></circle><circle cx="259" cy="302" r="2"></circle><circle cx="289" cy="297" r="2"></circle><circle cx="319" cy="312" r="2"></circle><circle cx="349" cy="333" r="2"></circle><circle cx="379" cy="356" r="2"></circle><circle cx="409" cy="396" r="2"></circle><circle cx="439" cy="414" r="2"></circle><circle cx="469" cy="417" r="2"></circle><circle cx="499" cy="406" r="2"></circle><circle cx="529" cy="400" r="2"></circle><circle cx="559" cy="383" r="2"></circle><circle cx="589" cy="363" r="2"></circle><circle cx="619" cy="344" r="2"></circle><circle cx="650" cy="336" r="2"></circle></g></g><g class="key-England_2"><path stroke="#ca2628" stroke-linecap="round" d="M79 367L109 304L139 285L169 286L199 262L229 232L259 210L289 211L319 236L349 269L379 303L409 352L439 376L469 378L499 365L529 351L559 340L589 315L619 295L650 279" fill="none" stroke-width="1.5"></path><g fill="#ca2628"><circle cx="79" cy="367" r="2"></circle><circle cx="109" cy="304" r="2"></circle><circle cx="139" cy="285" r="2"></circle><circle cx="169" cy="286" r="2"></circle><circle cx="199" cy="262" r="2"></circle><circle cx="229" cy="232" r="2"></circle><circle cx="259" cy="210" r="2"></circle><circle cx="289" cy="211" r="2"></circle><circle cx="319" cy="236" r="2"></circle><circle cx="349" cy="269" r="2"></circle><circle cx="379" cy="303" r="2"></circle><circle cx="409" cy="352" r="2"></circle><circle cx="439" cy="376" r="2"></circle><circle cx="469" cy="378" r="2"></circle><circle cx="499" cy="365" r="2"></circle><circle cx="529" cy="351" r="2"></circle><circle cx="559" cy="340" r="2"></circle><circle cx="589" cy="315" r="2"></circle><circle cx="619" cy="295" r="2"></circle><circle cx="650" cy="279" r="2"></circle></g></g></g></g></g><g class="SourcesFooter" style="fill:#777"><g class="clickable" style="fill:#777"><text font-size="12.60" x="15.0" y="581.6"><tspan x="15" y="581.58">Source: UK Government (2018). Ministry of Housing, Communities &amp; Local Government</tspan></text></g><text font-size="12.60" x="564.7" y="581.6"><tspan x="564.73" y="581.58"><a target='_blank' style='fill: #777;' href='https://ourworldindata.org/homelessness'>OurWorldInData.org/homelessness</a> • <a style="fill: #777;" class="cclogo" href="http://creativecommons.org/licenses/by-sa/4.0/deed.en_US" target="_blank">CC BY-SA</a></tspan></text></g></g></svg>
